www/assets/icons/integration_instructions.svg

<svg xmlns="http://www.w3.org/2000/svg" width="24" height="24" viewBox="0 0 24 24" fill='currentColor'><path d="M19 4h-4.18C14.4 2.84 13.3 2 12 2s-2.4.84-2.82 2H5c-.14 0-.27.01-.4.04a2.01 2.01 0 0 0-1.44 1.19c-.1.23-.16.49-.16.77v14c0 .27.06.54.16.78s.25.45.43.64c.27.27.62.47 1.01.55.13.02.26.03.4.03h14c1.1 0 2-.9 2-2V6c0-1.1-.9-2-2-2m-8 11.17-1.41 1.42L6 13l3.59-3.59L11 10.83 8.83 13zm1-9.92c-.41 0-.75-.34-.75-.75s.34-.75.75-.75.75.34.75.75-.34.75-.75.75m2.41 11.34L13 15.17 15.17 13 13 10.83l1.41-1.42L18 13z"/></svg>

<svg width="24" height="24" viewBox="0 0 24 24" xmlns="http://www.w3.org/2000/svg" fill='currentColor'><path d="M19 4H14.82C14.4 2.84 13.3 2 12 2C10.7 2 9.6 2.84 9.18 4H5C4.86 4 4.73 4.01 4.6 4.04C4.21 4.12 3.86 4.32 3.59 4.59C3.41 4.77 3.26 4.99 3.16 5.23C3.06 5.46 3 5.72 3 6V20C3 20.27 3.06 20.54 3.16 20.78C3.26 21.02 3.41 21.23 3.59 21.42C3.86 21.69 4.21 21.89 4.6 21.97C4.73 21.99 4.86 22 5 22H19C20.1 22 21 21.1 21 20V6C21 4.9 20.1 4 19 4ZM11 15.17L9.59 16.59L6 13L9.59 9.41L11 10.83L8.83 13L11 15.17ZM12 5.25C11.59 5.25 11.25 4.91 11.25 4.5C11.25 4.09 11.59 3.75 12 3.75C12.41 3.75 12.75 4.09 12.75 4.5C12.75 4.91 12.41 5.25 12 5.25ZM14.41 16.59L13 15.17L15.17 13L13 10.83L14.41 9.41L18 13L14.41 16.59Z"/></svg>
